X: 79
T:Lawson's Delight. HA.078
M:3/4
L:1/4
Q:70
C:Back to Original Hand
S:Henry Atkinson's original MS,Hartburn,N'umberland,1694.
O:England
A:Hartburn,Northumberland
N:We seem to be back to the original hand, but with the variation of
N:modern repeat marks, (sometimes).CGP
H:1/4
Z:vmp.Chris Partington.Jan.2004
K:C
ccd|eec|e"#"f3/2(e/4f/4)|g2(f/e/)|!
ffg|aag/e/|fe>d|d2G:|!
|"u"gge|ffe|dd/e/ d/c/|B>AG|!
eef|^fg^g|af>e|e2f|!
ggf/e/|ffe|dd/e/d/c/|B>A G/A/|!
"b"BB>c|AAd/B/|cc>B|c3|]
